X:03101
T: the Eight Men of Moidart
R: reel
B: RSCDS 3-10
Z: 1997 by John Chambers <jc:trillian.mit.edu>
M: 2/4
L: 1/8
%--------------------
%--------------------
K: F
|: g \
| "F"a/g/f/e/ fc | A2 Fc | A/B/c Fc | "C7"[AF][GE] [GE]g \
| "F"a/g/f/e/ fc | A2 Fc | A/B/c "C7"GB | "F"AF F :|
|: c \
| "F"AF cF | "Bb"dF "F"cF | AF cF | "Bb"d/c/B/A/ "C7"GB \
| "F"AF cF | "Bb"dF "F"cF | A/B/c "C7"GB | "F"AF F :|
